X:1844
T:Fahy's jig #1
O:england
R:jig
C:Paddy Fahy
S:Mulvihill's tune collection
M:6/8
L:1/8
K:G
D|:GBd g2a|gfd cBc|dcA ~=f3|ag=f ecA|
GBd g2a|gfd cBc|dgf dcA|1 BGF G2D:|2 BGF GBd|
|:~g3 bag|fdc d2e|{a}=fef agf|e/2=f/2ge cBc|
dgg bag|fdc d2c|dgf dcA|1 BGF GBd:|2 BGF G2D||


